packages/ffe-icons/icons/open/400/sm/view_compact_alt.svg

<svg xmlns="http://www.w3.org/2000/svg" height="20" viewBox="0 -960 960 960" width="20"><path d="M347.912-312h71.825Q435-312 445.5-322.325 456-332.65 456-347.912v-71.825Q456-435 445.675-445.5 435.35-456 420.088-456h-71.825Q333-456 322.5-445.675 312-435.35 312-420.088v71.825Q312-333 322.325-322.5 332.65-312 347.912-312Zm0-192h71.825Q435-504 445.5-514.325 456-524.65 456-539.912v-71.825Q456-627 445.675-637.5 435.35-648 420.088-648h-71.825Q333-648 322.5-637.675 312-627.35 312-612.088v71.825Q312-525 322.325-514.5 332.65-504 347.912-504Zm192 192h71.825Q627-312 637.5-322.325 648-332.65 648-347.912v-71.825Q648-435 637.675-445.5 627.35-456 612.088-456h-71.825Q525-456 514.5-445.675 504-435.35 504-420.088v71.825Q504-333 514.325-322.5 524.65-312 539.912-312Zm0-192h71.825Q627-504 637.5-514.325 648-524.65 648-539.912v-71.825Q648-627 637.675-637.5 627.35-648 612.088-648h-71.825Q525-648 514.5-637.675 504-627.35 504-612.088v71.825Q504-525 514.325-514.5 524.65-504 539.912-504ZM168-192q-29.7 0-50.85-21.162Q96-234.324 96-264.04v-432.243Q96-726 117.15-747T168-768h624q29.7 0 50.85 21.162Q864-725.676 864-695.96v432.243Q864-234 842.85-213T792-192H168Zm0-72h624v-432H168v432Zm0 0v-432 432Z"/></svg>

<svg xmlns="http://www.w3.org/2000/svg" height="20" viewBox="0 -960 960 960" width="20"><path d="M347.91-312h71.83q15.26 0 25.76-10.32 10.5-10.33 10.5-25.59v-71.83q0-15.26-10.32-25.76-10.33-10.5-25.59-10.5h-71.83q-15.26 0-25.76 10.32-10.5 10.33-10.5 25.59v71.83q0 15.26 10.32 25.76 10.33 10.5 25.59 10.5Zm0-192h71.83q15.26 0 25.76-10.32 10.5-10.33 10.5-25.59v-71.83q0-15.26-10.32-25.76-10.33-10.5-25.59-10.5h-71.83q-15.26 0-25.76 10.32-10.5 10.33-10.5 25.59v71.83q0 15.26 10.32 25.76 10.33 10.5 25.59 10.5Zm192 192h71.83q15.26 0 25.76-10.32 10.5-10.33 10.5-25.59v-71.83q0-15.26-10.32-25.76-10.33-10.5-25.59-10.5h-71.83q-15.26 0-25.76 10.32-10.5 10.33-10.5 25.59v71.83q0 15.26 10.32 25.76 10.33 10.5 25.59 10.5Zm0-192h71.83q15.26 0 25.76-10.32 10.5-10.33 10.5-25.59v-71.83q0-15.26-10.32-25.76-10.33-10.5-25.59-10.5h-71.83q-15.26 0-25.76 10.32-10.5 10.33-10.5 25.59v71.83q0 15.26 10.32 25.76 10.33 10.5 25.59 10.5ZM168-192q-29.7 0-50.85-21.16Q96-234.32 96-264.04v-432.24Q96-726 117.15-747T168-768h624q29.7 0 50.85 21.16Q864-725.68 864-695.96v432.24Q864-234 842.85-213T792-192H168Zm0-72h624v-432H168v432Zm0 0v-432 432Z"/></svg>
